Newaita-dark/.DP/24/smplayer-panel.svg

<svg xmlns="http://www.w3.org/2000/svg" xmlns:xlink="http://www.w3.org/1999/xlink" width="24px" height="24px" viewBox="0 0 24 24" version="1.1">
<g id="surface1">
<path style=" stroke:none;fill-rule:nonzero;fill:rgb(93.333334%,93.333334%,93.333334%);fill-opacity:1;" d="M 7.195312 3.929688 C 2.671875 6.542969 1.132812 12.285156 3.742188 16.808594 C 6.355469 21.328125 12.097656 22.867188 16.621094 20.257812 C 21.140625 17.648438 22.679688 11.90625 20.070312 7.382812 C 17.460938 2.859375 11.71875 1.320312 7.195312 3.929688 Z M 7.359375 6.03125 C 7.367188 6.023438 7.375 6.023438 7.382812 6.019531 C 7.582031 5.910156 7.835938 5.976562 7.953125 6.179688 L 9.769531 9.328125 C 9.867188 9.496094 9.835938 9.710938 9.699219 9.84375 C 9.488281 10.050781 9.304688 10.289062 9.160156 10.542969 C 9.066406 10.710938 8.867188 10.792969 8.683594 10.742188 L 5.164062 9.800781 C 4.917969 9.734375 4.785156 9.46875 4.882812 9.234375 C 5.398438 7.96875 6.242188 6.875 7.328125 6.054688 C 7.339844 6.046875 7.351562 6.039062 7.359375 6.03125 Z M 8.929688 5.125 L 8.96875 5.105469 C 10.226562 4.570312 11.601562 4.390625 12.945312 4.578125 C 13.203125 4.609375 13.367188 4.859375 13.296875 5.105469 L 12.355469 8.625 C 12.304688 8.808594 12.136719 8.9375 11.945312 8.9375 C 11.648438 8.9375 11.351562 8.976562 11.070312 9.054688 C 10.882812 9.105469 10.6875 9.023438 10.585938 8.859375 L 8.765625 5.703125 C 8.648438 5.5 8.726562 5.238281 8.929688 5.125 Z M 4.59375 10.757812 C 4.695312 10.703125 4.8125 10.683594 4.921875 10.710938 L 8.4375 11.65625 C 8.625 11.707031 8.753906 11.875 8.75 12.070312 C 8.75 12.367188 8.789062 12.65625 8.867188 12.945312 C 8.921875 13.128906 8.839844 13.328125 8.671875 13.421875 L 5.523438 15.242188 C 5.300781 15.371094 5.019531 15.273438 4.921875 15.042969 C 4.390625 13.789062 4.207031 12.414062 4.390625 11.0625 C 4.410156 10.9375 4.484375 10.824219 4.59375 10.757812 Z M 14.414062 5.089844 C 14.523438 5.027344 14.660156 5.019531 14.78125 5.070312 C 16.007812 5.570312 17.117188 6.398438 17.960938 7.515625 C 18.113281 7.71875 18.054688 8.007812 17.835938 8.132812 L 14.683594 9.953125 C 14.515625 10.050781 14.304688 10.023438 14.167969 9.882812 C 13.960938 9.671875 13.726562 9.492188 13.46875 9.34375 C 13.300781 9.25 13.21875 9.054688 13.265625 8.867188 L 14.210938 5.351562 C 14.242188 5.238281 14.3125 5.148438 14.414062 5.09375 Z M 9.828125 11.179688 C 9.929688 11.121094 10.046875 11.101562 10.167969 11.132812 C 10.40625 11.195312 10.546875 11.445312 10.484375 11.679688 C 10.421875 11.921875 10.175781 12.0625 9.9375 12 C 9.695312 11.9375 9.554688 11.6875 9.621094 11.453125 C 9.652344 11.328125 9.726562 11.234375 9.828125 11.179688 Z M 12.238281 9.96875 C 12.335938 9.914062 12.460938 9.890625 12.578125 9.925781 C 12.816406 9.988281 12.960938 10.234375 12.894531 10.472656 C 12.832031 10.710938 12.585938 10.851562 12.34375 10.789062 C 12.171875 10.742188 12.039062 10.59375 12.015625 10.414062 C 11.992188 10.234375 12.078125 10.0625 12.238281 9.96875 Z M 5.992188 16.0625 L 9.144531 14.242188 C 9.3125 14.144531 9.523438 14.175781 9.65625 14.3125 C 9.867188 14.523438 10.101562 14.703125 10.359375 14.851562 C 10.523438 14.945312 10.609375 15.140625 10.558594 15.328125 L 9.617188 18.847656 C 9.550781 19.09375 9.28125 19.226562 9.046875 19.132812 C 7.789062 18.617188 6.6875 17.769531 5.867188 16.683594 C 5.714844 16.480469 5.773438 16.1875 5.992188 16.0625 Z M 18.304688 8.953125 C 18.523438 8.828125 18.808594 8.921875 18.90625 9.15625 C 19.4375 10.40625 19.621094 11.78125 19.4375 13.132812 C 19.398438 13.382812 19.152344 13.546875 18.90625 13.484375 L 15.390625 12.539062 C 15.203125 12.492188 15.074219 12.320312 15.074219 12.128906 C 15.078125 11.832031 15.039062 11.539062 14.960938 11.253906 C 14.90625 11.066406 14.988281 10.867188 15.15625 10.773438 Z M 11.253906 13.644531 C 11.351562 13.585938 11.472656 13.570312 11.59375 13.601562 C 11.832031 13.664062 11.976562 13.910156 11.910156 14.148438 C 11.84375 14.390625 11.601562 14.53125 11.359375 14.464844 C 11.125 14.402344 10.980469 14.15625 11.046875 13.917969 C 11.078125 13.796875 11.15625 13.703125 11.253906 13.644531 Z M 13.71875 12.21875 C 13.996094 12.0625 14.347656 12.234375 14.390625 12.546875 C 14.429688 12.867188 14.136719 13.125 13.828125 13.039062 C 13.65625 12.992188 13.523438 12.84375 13.5 12.664062 C 13.476562 12.484375 13.5625 12.3125 13.71875 12.21875 Z M 11.679688 15.308594 C 11.742188 15.277344 11.8125 15.257812 11.882812 15.257812 C 12.179688 15.265625 12.46875 15.226562 12.757812 15.144531 C 12.945312 15.09375 13.140625 15.171875 13.242188 15.339844 L 15.058594 18.492188 C 15.1875 18.710938 15.09375 18.992188 14.859375 19.09375 C 13.601562 19.625 12.230469 19.804688 10.882812 19.617188 C 10.625 19.585938 10.460938 19.335938 10.53125 19.09375 L 11.472656 15.574219 C 11.5 15.46875 11.570312 15.375 11.664062 15.320312 C 11.667969 15.316406 11.671875 15.3125 11.679688 15.308594 Z M 14.820312 13.5 C 14.914062 13.4375 15.03125 13.421875 15.144531 13.453125 L 18.664062 14.398438 C 18.90625 14.460938 19.039062 14.726562 18.945312 14.960938 C 18.445312 16.195312 17.617188 17.304688 16.5 18.144531 C 16.296875 18.296875 16.003906 18.238281 15.875 18.019531 L 14.058594 14.867188 C 13.960938 14.699219 13.992188 14.488281 14.128906 14.351562 C 14.339844 14.148438 14.523438 13.910156 14.664062 13.652344 C 14.703125 13.589844 14.753906 13.539062 14.820312 13.5 Z M 14.820312 13.5 "/>
</g>
</svg>

<svg xmlns="http://www.w3.org/2000/svg" width="24" height="24"><path d="M7.195 3.93a9.41 9.41 0 0 0-3.453 12.879 9.406 9.406 0 0 0 12.88 3.449A9.401 9.401 0 0 0 20.07 7.383 9.406 9.406 0 0 0 7.195 3.93zm.168 2.101a.42.42 0 0 1 .586.148l1.82 3.15a.426.426 0 0 1-.07.515c-.21.207-.394.441-.539.699a.426.426 0 0 1-.476.203l-3.52-.945a.423.423 0 0 1-.281-.57 7.596 7.596 0 0 1 2.445-3.18c.012-.008.024-.012.035-.02zm1.57-.91v.004l.036-.02a7.545 7.545 0 0 1 3.98-.527c.25.035.414.281.348.527l-.942 3.516a.427.427 0 0 1-.414.316 2.985 2.985 0 0 0-.87.118.424.424 0 0 1-.481-.2L8.77 5.707a.427.427 0 0 1 .164-.586zm-4.34 5.637a.418.418 0 0 1 .329-.043l3.516.941c.187.051.316.219.312.414 0 .293.04.59.117.875a.42.42 0 0 1-.195.48l-3.149 1.817a.42.42 0 0 1-.601-.199 7.577 7.577 0 0 1-.531-3.977.436.436 0 0 1 .203-.308zm9.821-5.668a.431.431 0 0 1 .367-.024 7.597 7.597 0 0 1 3.18 2.45.418.418 0 0 1-.129.617l-3.148 1.82a.42.42 0 0 1-.516-.07 3.107 3.107 0 0 0-.7-.535.426.426 0 0 1-.198-.48l.94-3.516a.425.425 0 0 1 .2-.262zm-4.586 6.09a.448.448 0 1 1 .453.772.448.448 0 0 1-.453-.772zm2.41-1.211a.425.425 0 0 1 .34-.043.444.444 0 0 1 .317.547.444.444 0 0 1-.547.316.452.452 0 0 1-.332-.375.449.449 0 0 1 .222-.445zm-6.246 6.094l3.153-1.82a.426.426 0 0 1 .515.07c.207.21.442.394.7.539.167.093.25.289.199.476l-.942 3.52a.423.423 0 0 1-.57.28 7.565 7.565 0 0 1-3.18-2.444.424.424 0 0 1 .125-.622zm12.313-7.11a.423.423 0 0 1 .601.2c.532 1.253.715 2.628.532 3.98a.427.427 0 0 1-.532.351l-3.515-.945a.422.422 0 0 1-.317-.41 3.012 3.012 0 0 0-.117-.875.426.426 0 0 1 .2-.48zm-7.051 4.692a.447.447 0 1 1 0 0zm2.465-1.426a.452.452 0 0 1 .672.332.448.448 0 0 1-.563.488.443.443 0 0 1-.105-.816zm-2.04 3.09a.409.409 0 0 1 .204-.047c.293 0 .586-.035.875-.117a.418.418 0 0 1 .48.195l1.82 3.148a.423.423 0 0 1-.199.602 7.586 7.586 0 0 1-3.98.531.426.426 0 0 1-.352-.527l.946-3.52a.44.44 0 0 1 .187-.254h.004c.004-.004.012-.008.016-.011zm3.137-1.809a.408.408 0 0 1 .329-.047l3.515.942c.25.066.38.332.285.57a7.595 7.595 0 0 1-2.445 3.18.424.424 0 0 1-.621-.125l-1.82-3.153a.414.414 0 0 1 .07-.512c.21-.207.39-.445.535-.703a.438.438 0 0 1 .152-.152zm0 0" fill="#bdbdbd"/></svg>
